X:1
T:Richmond
T:Thomas Haweis
T:(O for a thousand tongues to sing)
T:CM
%%score { ( 1 2 ) | ( 3 4 ) }
L:1/8
M:none
K:G
V:1 treble nm="Organ"
V:2 treble 
V:3 bass 
V:4 bass 
V:1
 D2 G2 B2 | d4 c2 | (B2 c2) A2 | !breath!G4 B2 | (A2 d2) G2 | (F2 G2) E2 | !breath!D4 A2 | %7
 (B2 A2) G2 | (c2 B2) A2 | (d2 c2) B2 | !breath!e4 d2 | (E2 c2) B2 | BA G2 F2 | G6 |] %14
V:2
 B,2 D2 G2 | (A2 F2) E2 | (D2 E2) C2 | B,4 ^C2 | D4 E2 | D4 ^C2 | D4 D2 | D4 E2 | C4 DE | =F4 F2 | %10
 E4 G2 | ((E2 F2)) G2 | E2 D2 D2 | D6 |] %14
V:3
 G,2 B,2 D2 | D4 G,A, | (B,2 G,2) F,2 | G,4 G,2 | A,4 B,2 | A,4 G,2 | F,4 F,2 | (G,2 F,2) E,2 | %8
 (A,2 G,2) F,2 | (G,2 A,2) B,2 | G,4 D2 | C4 D2 | (C2 B,2) A,2 | B,6 |] %14
V:4
 G,2 G,2 G,2 | (F,2 D,2) E,F, | (G,2 C,2) D,2 | G,,4 E,2 | F,4 G,2 | A,4 A,,2 | D,4 C,2 | %7
 B,,4 E,2 | A,,4 C,2 | (B,,2 A,,2) G,,2 | C,4 B,,2 | (B,,2 A,,2) G,,2 | (C,2 D,2) D,2 | G,,6 |] %14

